logo/mida.svg

<?xml version="1.0" encoding="UTF-8"?>
<svg width="512px" height="114px" viewBox="0 0 512 114" version="1.1" xmlns="http://www.w3.org/2000/svg" preserveAspectRatio="xMidYMid">
    <title>Mida</title>
    <g>
        <path d="M14.8137696,106.332859 L14.8137696,53.3703556 L47.4565007,98.5982361 L47.7186913,98.5982361 L81.1479943,51.1417354 L81.1479943,106.332859 L96.3550498,106.332859 L96.3550498,7.48699858 L96.0928592,7.48699858 L47.7186913,74.8699858 L0.131095306,7.48699858 L0,7.48699858 L0,106.332859 L14.8137696,106.332859 Z M151.021792,106.332859 L151.021792,10.8954765 L135.683642,10.8954765 L135.683642,106.332859 L151.021792,106.332859 Z M222.075448,106.332859 C230.640341,106.332859 238.549758,104.431977 245.803698,100.630213 C253.057639,96.8284495 258.847681,91.4098435 263.173826,84.3743954 C267.499972,77.3389474 269.663044,69.1891892 269.663044,59.9251209 C269.663044,51.5350213 267.871408,43.6256046 264.288137,36.1968706 C260.704865,28.7681366 255.002219,22.6940541 247.180199,17.974623 C239.358179,13.255192 229.460484,10.8954765 217.487112,10.8954765 L190.350384,10.8954765 L190.350384,106.332859 L222.075448,106.332859 L222.075448,106.332859 Z M219.322447,91.6501849 L205.688535,91.6501849 L205.688535,25.4470555 L221.682162,25.4470555 C226.925974,25.4470555 232.016842,26.6269132 236.954765,28.9866287 C241.892688,31.3463442 245.956643,35.038862 249.146629,40.0641821 C252.336615,45.0895021 253.931607,51.3602276 253.931607,58.8763585 C253.931607,65.7807112 252.46771,71.7018492 249.539915,76.6397724 C246.612119,81.5776956 242.548165,85.3139118 237.348051,87.8484211 C232.147937,90.3829303 226.139403,91.6501849 219.322447,91.6501849 L219.322447,91.6501849 Z M302.699061,106.332859 L311.875733,83.9155619 L346.615989,83.9155619 L355.399374,106.332859 L372.966145,106.332859 L330.753457,6.96261735 L329.835789,6.96261735 L285.13229,106.332859 L302.699061,106.332859 Z M341.503272,70.8060313 L317.25064,70.8060313 L329.573599,40.654111 L341.503272,70.8060313 L341.503272,70.8060313 Z" fill="#000000"></path>
        <path d="M455.332383,28.8322006 C482.437499,28.8322006 504.638894,49.459587 504.638894,74.9503411 C504.638894,82.3665106 498.33232,88.161558 490.384909,88.161558 C482.437499,88.161558 476.130925,82.1366963 476.130925,74.9503411 C476.130925,63.8260863 466.786925,55.0186086 455.100662,55.0186086 C443.414399,55.0186086 434.070399,64.0559006 434.070399,74.9503411 C434.070399,88.1553467 439.212104,100.670909 448.794088,110.174041 C450.059949,111.390581 451.319169,112.514028 452.589856,113.555653 C447.031518,113.306778 441.681366,112.257465 436.651253,110.521488 C434.355126,107.764969 432.330502,104.763475 429.754939,100.201553 C425.56014,93.043705 423.459614,84.0422625 423.459614,74.3479254 C423.459614,57.9597324 437.688175,44.8009226 455.180052,44.8009226 C472.671929,44.8009226 486.90049,57.9535458 486.669182,74.1128363 C486.669182,76.1915199 488.307092,77.577309 490.170058,77.577309 C492.270584,77.577309 493.670934,75.9564308 493.670934,74.1128363 C493.670934,54.2601705 476.410365,37.8719772 455.186304,37.8719772 C433.962242,37.8719772 416.701673,54.2601705 416.470365,74.3479254 C416.470365,85.1929624 419.039758,95.3512913 423.703425,103.659839 C423.841906,103.899753 423.979152,104.136 424.115267,104.36874 C417.436636,99.9967293 411.736002,94.2564045 407.410341,87.5461541 C406.425829,82.4779004 406.263856,78.3096262 406.263856,75.1801554 C406.263856,68.0000109 407.666709,61.7391243 410.23443,56.1801026 C418.18184,39.4906153 435.936693,28.8322006 455.332383,28.8322006 Z M455.564104,62.2049642 C463.511515,62.2049642 469.818089,68.2298252 469.818089,75.416181 C469.818089,86.3106209 479.162089,95.3479131 490.848352,95.3479131 C493.358844,95.3479131 495.761243,94.9308468 497.986132,94.1678988 C494.762272,97.8595123 491.067444,101.129639 486.996079,103.885506 C481.334967,103.541117 476.529035,101.931727 472.255843,99.0650319 C463.942883,93.483191 459.090046,84.4088013 459.090046,74.8666598 C459.090046,72.7711305 457.703521,71.374111 455.623733,71.374111 C453.543946,71.374111 452.157421,73.0081247 452.157421,74.8666598 C452.157421,86.7350881 458.161569,97.9050066 468.090079,104.65311 C470.922814,106.592603 474.03255,108.084939 477.420018,109.10215 C472.924949,111.015695 468.132125,112.366294 463.130598,113.065652 C459.990633,111.14758 457.124076,108.837917 454.161252,106.006327 C445.750399,97.8945038 441.31012,87.0062751 441.31012,75.416181 C441.31012,68.0000109 447.616694,62.2049642 455.564104,62.2049642 L455.564104,62.2049642 Z M423.471089,19.9135286 C442.734584,9.92610406 467.565023,9.92610406 487.05866,19.9135286 C495.794447,24.2889321 503.088145,30.5101611 508.944933,38.3854391 C510.925586,44.1620921 512,50.3595576 512,56.8079659 C512,60.2069054 511.701494,63.5361253 511.129267,66.7708389 C506.728565,41.6896126 483.505802,22.5775249 455.564104,22.5775249 C433.600693,22.5775249 413.503578,34.8632733 404.391298,53.6335116 C402.026598,58.5029094 400.512159,64.0762829 399.957322,70.1338225 C398.928343,65.8600676 398.384068,61.3975779 398.384068,56.8079659 C398.384068,50.5121398 399.408238,44.4555215 401.29906,38.7956285 C407.208992,30.9190849 414.597998,24.3547274 423.471089,19.9135286 L423.471089,19.9135286 Z M455.192034,0 C471.239924,0 485.733618,6.65430037 496.064414,17.3541973 C494.214022,16.1838872 492.29506,15.0999459 490.305526,14.1041351 C468.958314,2.95234127 441.807796,3.1827245 420.454365,14.1041351 C418.082156,15.3181321 415.788365,16.6637818 413.579427,18.1379038 C423.950816,6.97981736 438.756313,0 455.192034,0 Z" fill="#E7D218"></path>
    </g>
</svg>

<svg viewBox="0 0 512 114" xmlns="http://www.w3.org/2000/svg"><path d="M14.81 106.33V53.36l32.64 45.22h.26l33.42-47.46v55.19h15.2V7.46h-.27L47.68 74.84 .09 7.45h-.14v98.84h14.81Zm136.2 0V10.89h-15.34v95.43H151Zm71.05 0c8.56 0 16.47-1.91 23.72-5.71 7.25-3.81 13.04-9.23 17.37-16.26 4.32-7.04 6.48-15.19 6.48-24.45 0-8.4-1.8-16.3-5.38-23.73 -3.59-7.43-9.29-13.51-17.11-18.23 -7.83-4.72-17.72-7.08-29.7-7.08H190.3v95.43h31.72v0Zm-2.76-14.69h-13.64V25.43h15.99c5.24 0 10.33 1.17 15.27 3.53 4.93 2.35 9 6.05 12.19 11.07 3.18 5.02 4.78 11.29 4.78 18.81 0 6.9-1.47 12.82-4.4 17.76 -2.93 4.93-7 8.67-12.2 11.2 -5.21 2.53-11.21 3.8-18.03 3.8v0Zm83.37 14.68l9.17-22.42h34.74l8.78 22.41h17.56L330.7 6.93h-.92l-44.71 99.37h17.56Zm38.8-35.53h-24.26l12.32-30.16 11.92 30.15v0Z"/><path fill="#E7D218" d="M455.33 28.83c27.1 0 49.3 20.62 49.3 46.11 0 7.41-6.31 13.21-14.26 13.21s-14.26-6.03-14.26-13.22c0-11.13-9.35-19.94-21.04-19.94s-21.04 9.03-21.04 19.93c0 13.2 5.14 25.72 14.72 35.22 1.26 1.21 2.52 2.33 3.79 3.38 -5.56-.25-10.91-1.3-15.94-3.04 -2.3-2.76-4.33-5.76-6.9-10.32 -4.2-7.16-6.3-16.16-6.3-25.86 0-16.39 14.22-29.55 31.72-29.55 17.49 0 31.72 13.15 31.48 29.31 0 2.07 1.63 3.46 3.5 3.46 2.1 0 3.5-1.63 3.5-3.47 0-19.86-17.27-36.25-38.49-36.25 -21.23 0-38.49 16.38-38.72 36.47 0 10.84 2.56 21 7.23 29.31 .13.23.27.47.41.7 -6.68-4.38-12.38-10.12-16.71-16.83 -.99-5.07-1.15-9.24-1.15-12.37 0-7.19 1.4-13.45 3.97-19.01 7.94-16.69 25.7-27.35 45.09-27.35Zm.23 33.37c7.94 0 14.25 6.02 14.25 13.21 0 10.89 9.34 19.93 21.03 19.93 2.51 0 4.91-.42 7.13-1.19 -3.23 3.69-6.92 6.96-11 9.71 -5.67-.35-10.47-1.96-14.75-4.83 -8.32-5.59-13.17-14.66-13.17-24.2 0-2.1-1.39-3.5-3.47-3.5s-3.47 1.63-3.47 3.49c0 11.86 6 23.03 15.93 29.78 2.83 1.93 5.94 3.43 9.32 4.44 -4.5 1.91-9.29 3.26-14.29 3.96 -3.14-1.92-6.01-4.23-8.97-7.06 -8.42-8.12-12.86-19.01-12.86-30.6 0-7.42 6.3-13.22 14.25-13.22v0Zm-32.1-42.3c19.26-9.99 44.09-9.99 63.58 0 8.73 4.37 16.02 10.59 21.88 18.47 1.98 5.77 3.05 11.97 3.05 18.42 0 3.39-.3 6.72-.88 9.96 -4.41-25.09-27.63-44.2-55.57-44.2 -21.97 0-42.07 12.28-51.18 31.05 -2.37 4.86-3.88 10.44-4.44 16.5 -1.03-4.28-1.58-8.74-1.58-13.33 0-6.3 1.02-12.36 2.91-18.02 5.9-7.88 13.29-14.45 22.17-18.89v0ZM455.18-.02c16.04 0 30.54 6.65 40.87 17.35 -1.86-1.18-3.77-2.26-5.76-3.26 -21.35-11.16-48.5-10.93-69.86 0 -2.38 1.21-4.67 2.55-6.88 4.03C423.92 6.94 438.72-.04 455.16-.04Z"/></svg>
